X: 106
T: No_194_Drunken_Dance_Song_(b).krn
N: Derived from No_194_Drunken_Dance_Song_(b).krn
%%abc-version 2.0
%%abcx-abcm2ps-target-version 5.9.1 (29 Sep 2008)
%%abc-creator hum2abc beta
%%abcx-conversion-date 2019/03/15 08:38:45
%%humdrum-veritas 3051378689
%%humdrum-veritas-data 2061080221
%%linebreak <none>
%%barnumbers 0
L: 1/8
M: 2/4
K: G clef=bass
[K:clef=bass][M:2/4]G,2z2 | 
G,2z2 | 
G,4 ||  
[M:3/4]G,4E,E, ||  
[M:2/4]G,4 | 
z4 | 
G,2E,E, ||  
[M:3/4]G,4E,E, ||  
[M:2/4]G,2G,G, ||  
[M:3/4]G,4B,B, ||  
[M:2/4]G,2B,B, | 
G,2z2 | 
z2B,B, | 
G,2B,B, | 
G,4 | 
z2B,B, | 
G,2(3G,G,G, ||  
[M:3/4]G,2z2(3G,G,G, ||  
[M:2/4]G,2(3G,G,G, | 
G,4 | 
z2G,G, | 
G,2G,G, ||  
[M:3/4]G,/G,3/-G,2z2 | 
G,G, G,G, G,B, ||  
[M:2/4]B,/G,3/G,2 ||  
[M:3/4]G,B, B,G, G,B, | 
B,/G,3/G,2z2 | 
G,B, B,G, G,B, | 
B,/G,3/-G,2z2 | 
G,B, B,G, B,B, | 
B,6 ||  
[M:2/4]z2C2 | 
B,3B, | 
B,2B,G, | 
B,2z2 | 
B,2G,G, ||  
[M:3/4]B,B,G,2z2 | 
G,B, B,G, G,B, | 
B,G,-G,4 |]  



